X:502
T:The peacock's feather
R:Hornpipe
O:Ireland
D:Frankie Gavin & Alec Finn
D:Joe Holmes & Len Graham: Chaste Muses, Bards & Sages
B:Ceol Rince 3 n218
S:My arrangement from various sources
Z:Transcription, arrangement, chords:Mike Long
M:4/4
L:1/8
K:C
AG|\
"Dm"FD"C"EC "Dm"D2DE|"Dm"FEFA "C"G2FG|"Dm"Ad-dc dcAG|"F"F2A,B, "C"C2AG|\
"Dm"FD"C"EC "Dm"D2DE|
"Dm"FEFA "C"G2FG|"Am"Ad-dc dcAG|"Dm"F2D2 D2:|\
|:AB|\
"F"c2Ad- "G"d2Ad|"Dm"dcAF "C"G2AB|
"F"c2Ad- "Dm"dcAG|"F"FDA,B, "C"C2AG|\
"Dm"FD"C"EC "Dm"D2DE|"Dm"FEFA "C"G2FG|"Am"Ad-dc dcAG|"Dm"F2D2 D2:|
